svg/color/ibmon.svg

<svg width="40" height="40" viewBox="0 0 40 40" fill="none" xmlns="http://www.w3.org/2000/svg">
<g clip-path="url(#clip0_820_3933)">
<path d="M20 0C31.0457 0 40 8.9543 40 20C40 31.0457 31.0457 40 20 40C8.95431 40 7.90517e-06 31.0457 0 20C6.58765e-07 8.95431 8.95431 1.97595e-06 20 0Z" fill="#CDD6EF"/>
<path d="M26 6C30.4183 6 34 9.58172 34 14V26C34 30.4183 30.4183 34 26 34H14C9.58172 34 6 30.4183 6 26V14C6 9.58172 9.58172 6 14 6H26Z" fill="#0530AD"/>
<path d="M20.0163 23.4473C19.6419 23.792 19.1403 24.0064 18.5856 24.0064L14.4434 24.0007V23.4473H20.0163ZM23.8908 24.0064H21.1117V23.4482H23.8908V24.0064ZM30 24.0064H27.2209V23.4482H30V24.0064ZM13.8883 24.0056H10V23.4465H13.8883V24.0056ZM25.5542 24.0007L25.363 23.4482H25.7471L25.5542 24.0007ZM13.8883 22.9387H10V22.3796H13.8883V22.9387ZM20.6462 22.3796C20.6006 22.5777 20.525 22.7664 20.424 22.9387H14.4434V22.3796H20.6462ZM23.8908 22.9387H21.1117V22.3796H23.8908V22.9387ZM25.9229 22.9387H25.1864L24.9902 22.3796H26.1214L25.9229 22.9387ZM30 22.9387H27.2209V22.3796H30V22.9387ZM12.7775 21.8726H11.1092V21.3144H12.7775V21.8726ZM17.2209 21.8726H15.555V21.3144H17.2209V21.8726ZM20.6323 21.3144C20.6818 21.4925 20.7072 21.6806 20.7072 21.8726H18.8892V21.3144H20.6323ZM23.8883 21.8726H22.2209V21.3144H23.8883V21.8726ZM26.298 21.8726H24.812L24.6159 21.3144H26.4933L26.298 21.8726ZM28.8883 21.3144V21.8726H27.2209V21.3144H28.8883ZM12.7775 20.8074H11.1092V20.2483H12.7775V20.8074ZM19.9585 20.2483C20.1407 20.4048 20.2972 20.5935 20.424 20.8074H15.555V20.2483H19.9585ZM23.8883 20.8074H22.2209V20.2483H23.8883V20.8074ZM26.6724 20.8074H24.4393L24.2472 20.2483H26.862L26.6724 20.8074ZM28.8883 20.8074H27.2209V20.2483H28.8883V20.8074ZM12.7775 19.7413H11.1092V19.1822H12.7775V19.7413ZM20.424 19.1822C20.3012 19.3961 20.1447 19.5848 19.9585 19.7413H15.555V19.1822H20.424ZM25.555 19.6339L25.7113 19.1822H28.8883V19.7413H27.2209V19.2278L27.0443 19.7413H24.0649L23.8883 19.2278V19.7413H22.2209V19.1822H25.3979L25.555 19.6339ZM12.7775 18.6736H11.1092V18.1153H12.7775V18.6736ZM17.2209 18.6736H15.555V18.1153H17.2209V18.6736ZM20.7072 18.1153C20.7072 18.3073 20.6818 18.4954 20.6323 18.6736H18.8892V18.1153H20.7072ZM25.2222 18.6736H22.2209V18.1153H25.0301L25.2222 18.6736ZM28.8883 18.6736H25.8879L26.0799 18.1153H28.8883V18.6736ZM13.8883 17.6075H10V17.0492H13.8883V17.6075ZM20.424 17.0492C20.519 17.2215 20.5947 17.4095 20.6462 17.6075H14.4434V17.0492H20.424ZM24.8535 17.6075H21.1117V17.0492H24.6615L24.8535 17.6075ZM30 17.6075H26.2581L26.4478 17.0492H30V17.6075ZM13.8883 16.5422H10V15.9832H13.8883V16.5422ZM18.5856 15.9832C19.1363 15.9832 19.6414 16.1975 20.0138 16.5422H14.4434V15.9832H18.5856ZM24.4849 16.5422H21.1117V15.9832H24.2928L24.4849 16.5422ZM30 16.5422H26.6268L26.8188 15.9832H30V16.5422Z" fill="white"/>
</g>
<defs>
<clipPath id="clip0_820_3933">
<rect width="40" height="40" fill="white"/>
</clipPath>
</defs>
</svg>

<svg xmlns="http://www.w3.org/2000/svg" width="40" height="40" fill="none" viewBox="0 0 40 40"><g clip-path="url(#ibmon_svg-a)"><path fill="#CDD6EF" d="M20 0c11.046 0 20 8.954 20 20s-8.954 20-20 20S0 31.046 0 20 8.954 0 20 0"/><path fill="#0530AD" d="M26 6a8 8 0 0 1 8 8v12a8 8 0 0 1-8 8H14a8 8 0 0 1-8-8V14a8 8 0 0 1 8-8z"/><path fill="#fff" d="M20.016 23.447c-.374.345-.876.56-1.43.56L14.443 24v-.554zm3.875.56h-2.78v-.559h2.78zm6.109 0h-2.78v-.559H30zm-16.112-.001H10v-.56h3.888zM25.554 24l-.191-.553h.384zm-11.666-1.062H10v-.56h3.888zm6.758-.56a2 2 0 0 1-.222.56h-5.98v-.56zm3.245.56h-2.78v-.56h2.78zm2.032 0h-.737l-.196-.56h1.131zm4.077 0h-2.78v-.56H30zm-17.222-1.066h-1.669v-.559h1.668zm4.443 0h-1.666v-.559h1.666zm3.411-.559q.075.269.075.559H18.89v-.559zm3.256.559h-1.667v-.559h1.667zm2.41 0h-1.486l-.196-.559h1.877zm2.59-.559v.559h-1.667v-.559zm-16.11-.507h-1.669v-.559h1.668zm7.18-.559q.276.236.466.56h-4.869v-.56zm3.93.56h-1.667v-.56h1.667zm2.784 0H24.44l-.192-.56h2.615zm2.216 0h-1.667v-.56h1.667zm-16.11-1.067h-1.669v-.559h1.668zm7.646-.559a2.1 2.1 0 0 1-.465.56h-4.404v-.56zm5.131.452.156-.452h3.177v.56h-1.667v-.514l-.177.513h-2.98l-.176-.513v.513h-1.667v-.559h3.177zm-12.777-.96h-1.669v-.559h1.668zm4.443 0h-1.666v-.559h1.666zm3.486-.559q0 .29-.075.559H18.89v-.559zm4.515.559h-3.001v-.559h2.81zm3.666 0h-3l.192-.559h2.808zm-15-1.066H10v-.559h3.888zm6.536-.559q.143.26.222.559h-6.203v-.559zm4.43.559h-3.742v-.559h3.55zm5.146 0h-3.742l.19-.559H30zm-16.112-1.066H10v-.559h3.888zm4.698-.559c.55 0 1.055.215 1.428.56h-5.57v-.56zm5.899.56h-3.373v-.56h3.18zm5.515 0h-3.373l.192-.56H30z"/></g><defs><clipPath id="ibmon_svg-a"><path fill="#fff" d="M0 0h40v40H0z"/></clipPath></defs></svg>
